Numix-GalliumOS/64/mimetypes/text-x-copying.svg

<svg xmlns="http://www.w3.org/2000/svg" xmlns:xlink="http://www.w3.org/1999/xlink" width="64px" height="64px" viewBox="0 0 64 64" version="1.1">
<g id="surface1">
<path style=" stroke:none;fill-rule:nonzero;fill:rgb(86.27451%,86.27451%,86.27451%);fill-opacity:1;" d="M 10.671875 0 C 9.296875 0 8 1.355469 8 2.789062 L 8 61.210938 C 8 62.566406 9.375 64 10.671875 64 L 53.328125 64 C 54.625 64 56 62.566406 56 61.210938 L 56 18 L 38 0 Z M 10.671875 0 "/>
<path style=" stroke:none;fill-rule:nonzero;fill:rgb(0%,0%,0%);fill-opacity:0.196078;" d="M 42 18 L 56 32 L 56 18 Z M 42 18 "/>
<path style=" stroke:none;fill-rule:nonzero;fill:rgb(100%,100%,100%);fill-opacity:0.392157;" d="M 38 0 L 55.984375 18 L 40.757812 18 C 39.410156 18 38 16.574219 38 15.226562 Z M 38 0 "/>
<path style=" stroke:none;fill-rule:nonzero;fill:rgb(53.333333%,53.333333%,53.333333%);fill-opacity:1;" d="M 32 24 C 24.265625 24 18 30.269531 18 37.996094 C 18 45.730469 24.265625 52 32 52 C 39.734375 52 46 45.730469 46 37.996094 C 46 30.269531 39.734375 24 32 24 Z M 32 26.796875 C 38.183594 26.796875 43.195312 31.808594 43.195312 37.996094 C 43.195312 44.183594 38.183594 49.203125 32 49.203125 C 25.816406 49.203125 20.804688 44.183594 20.804688 37.996094 C 20.804688 31.808594 25.816406 26.796875 32 26.796875 Z M 32 26.796875 "/>
<path style=" stroke:none;fill-rule:nonzero;fill:rgb(53.333333%,53.333333%,53.333333%);fill-opacity:1;" d="M 32.222656 32.484375 C 30.753906 32.484375 29.621094 32.976562 28.816406 33.960938 C 28.015625 34.9375 27.613281 36.296875 27.613281 38.046875 C 27.613281 41.695312 29.144531 43.515625 32.222656 43.515625 C 33.507812 43.515625 35.074219 43.230469 36.90625 42.65625 L 36.90625 45.558594 C 35.402344 46.117188 33.714844 46.398438 31.859375 46.398438 C 29.1875 46.398438 27.144531 45.683594 25.726562 44.238281 C 24.308594 42.796875 23.601562 40.726562 23.601562 38.027344 C 23.601562 36.332031 23.945312 34.835938 24.644531 33.566406 C 25.339844 32.285156 26.332031 31.300781 27.636719 30.628906 C 28.941406 29.941406 30.472656 29.59375 32.222656 29.59375 C 34.007812 29.59375 35.796875 29.980469 37.601562 30.75 L 36.339844 33.566406 C 35.65625 33.277344 34.960938 33.023438 34.273438 32.804688 C 33.574219 32.589844 32.894531 32.484375 32.222656 32.484375 "/>
</g>
</svg>

<svg xmlns="http://www.w3.org/2000/svg" viewBox="0 0 64 64">
 <path d="m 10.672 0 c -1.375 0 -2.672 1.355 -2.672 2.789 l 0 58.42 c 0 1.355 1.375 2.789 2.672 2.789 l 42.656 0 c 1.297 0 2.672 -1.434 2.672 -2.789 l 0 -43.21 -18 -18 m -27.328 0" style="fill:#dcdcdc;fill-opacity:1;stroke:none;fill-rule:nonzero"/>
 <path d="m 42 18 14 14 0 -14 z m 0 0" style="fill:#000;fill-opacity:0.196;stroke:none;fill-rule:nonzero"/>
 <path d="m 38 0 17.984 18 -15.227 0 c -1.348 0 -2.758 -1.426 -2.758 -2.773 m 0 -15.227" style="fill:#fff;fill-opacity:0.392;stroke:none;fill-rule:nonzero"/>
 <path d="m 32 24 c -7.734 0 -14 6.27 -14 13.996 0 7.734 6.266 14 14 14 7.734 0 14 -6.27 14 -14 0 -7.727 -6.266 -13.996 -14 -13.996 m 0 2.797 c 6.184 0 11.195 5.01 11.195 11.199 0 6.188 -5.01 11.207 -11.195 11.207 -6.184 0 -11.195 -5.02 -11.195 -11.207 0 -6.188 5.01 -11.199 11.195 -11.199 z m 0 0" style="fill:#888;fill-opacity:1;stroke:none;fill-rule:nonzero"/>
 <path d="m 32.22 32.484 c -1.469 0 -2.602 0.492 -3.406 1.477 -0.801 0.977 -1.203 2.336 -1.203 4.086 0 3.648 1.531 5.469 4.609 5.469 1.285 0 2.852 -0.285 4.684 -0.859 l 0 2.902 c -1.504 0.559 -3.191 0.84 -5.05 0.84 -2.672 0 -4.715 -0.715 -6.133 -2.16 -1.418 -1.441 -2.125 -3.512 -2.125 -6.211 0 -1.695 0.344 -3.191 1.043 -4.461 0.695 -1.281 1.688 -2.266 2.992 -2.938 1.305 -0.688 2.836 -1.035 4.586 -1.035 1.785 0 3.574 0.387 5.379 1.156 l -1.262 2.816 c -0.684 -0.289 -1.379 -0.543 -2.066 -0.762 -0.699 -0.215 -1.379 -0.32 -2.051 -0.32" style="fill:#888;fill-opacity:1;stroke:none;fill-rule:nonzero"/>
</svg>
